contributed-vectors/casio_edu.svg

<svg xmlns="http://www.w3.org/2000/svg" xml:space="preserve" style="fill-rule:evenodd;clip-rule:evenodd;stroke-linejoin:round;stroke-miterlimit:2" viewBox="0 0 192 192"><path d="M164.5 21.5c0-5.519-4.481-10-10-10h-133c-5.519 0-10 4.481-10 10v133c0 5.519 4.481 10 10 10h133c5.519 0 10-4.481 10-10v-133Z" style="fill:#fff" transform="translate(8 8)"/><path d="M172.5 141.203V162.5c0 2.726-1.093 5.2-2.865 7.004l-.131.131a9.966 9.966 0 0 1-7.004 2.865h-21.297l31.297-31.297Z" style="fill:#96dfd3"/><path d="M172.5 90.333v25.435L115.768 172.5H90.333L172.5 90.333Z" style="fill:#728dbe"/><path d="M172.5 141.203 141.203 172.5h-25.435l56.732-56.732v25.435Z" style="fill:#9abeff"/><text x="29.5" y="108.243" style="font-family:&quot;CascadiaMono-Regular&quot;,&quot;Cascadia Mono&quot;,monospace;font-size:57.225px;fill:#9abeff" transform="matrix(1.0792 0 0 1 -2.744 0)">E<tspan x="64.461px 99.422px" y="108.243px 108.243px">DU</tspan></text><text x="150.334" y="87.936" style="font-family:&quot;CascadiaMono-Regular&quot;,&quot;Cascadia Mono&quot;,monospace;font-size:48px;fill:#9abeff" transform="translate(-7.513 -3.794)">+</text></svg>

<?xml version="1.0" encoding="UTF-8" standalone="no"?>
<!DOCTYPE svg PUBLIC "-//W3C//DTD SVG 1.1//EN" "http://www.w3.org/Graphics/SVG/1.1/DTD/svg11.dtd">
<svg width="100%" height="100%" viewBox="0 0 192 192" version="1.1" xmlns="http://www.w3.org/2000/svg" xmlns:xlink="http://www.w3.org/1999/xlink" xml:space="preserve" xmlns:serif="http://www.serif.com/" style="fill-rule:evenodd;clip-rule:evenodd;stroke-linejoin:round;stroke-miterlimit:2;">
    <g id="Layer1">
        <g transform="matrix(1,0,0,1,8,8)">
            <path d="M164.5,21.5C164.5,15.981 160.019,11.5 154.5,11.5L21.5,11.5C15.981,11.5 11.5,15.981 11.5,21.5L11.5,154.5C11.5,160.019 15.981,164.5 21.5,164.5L154.5,164.5C160.019,164.5 164.5,160.019 164.5,154.5L164.5,21.5Z" style="fill:white;"/>
        </g>
        <path d="M172.5,141.203L172.5,162.5C172.5,165.226 171.407,167.7 169.635,169.504L169.504,169.635C167.7,171.407 165.226,172.5 162.5,172.5L141.203,172.5L172.5,141.203Z" style="fill:rgb(150,223,211);"/>
        <path d="M172.5,90.333L172.5,115.768L115.768,172.5L90.333,172.5L172.5,90.333Z" style="fill:rgb(114,141,190);"/>
        <path d="M172.5,141.203L141.203,172.5L115.768,172.5L172.5,115.768L172.5,141.203Z" style="fill:rgb(154,190,255);"/>
        <g transform="matrix(1.0792,0,0,1,-2.74366,0)">
            <text x="29.5px" y="108.243px" style="font-family:'CascadiaMono-Regular', 'Cascadia Mono', monospace;font-size:57.225px;fill:rgb(154,190,255);">E<tspan x="64.461px 99.422px " y="108.243px 108.243px ">DU</tspan></text>
        </g>
        <g transform="matrix(1,0,0,1,-7.51339,-3.79393)">
            <text x="150.334px" y="87.936px" style="font-family:'CascadiaMono-Regular', 'Cascadia Mono', monospace;font-size:48px;fill:rgb(154,190,255);">+</text>
        </g>
    </g>
</svg>
